!!!OTL: Gongzhandang bi nianglaozi qin
!!!ARE: Asia, China,ÿGansu Linxia
!! I, 108
!!!SCT: C1804
!!!YEM: Copyright 1995, estate of Helmut Schaffrath.
**kern
*ICvox
*Ivox
!! Mixed meters:  3/4; 2/4
*M2/4
*k[b-e-]
*B-:
{8ff
16ff
16dd
2dd
=1
8.ff
16gg
8bb-
16ccc
16ddd
=2
2ccc
=3
8ddd
8ddd
8ff
16ff
16gg
=4
*M3/4
8bb-
16ccc
16bb-
4gg
4r}
=5
{8ff
16ff
16dd
2dd
=6
*M2/4
8.ff
16gg
8ddd
16ddd
16fff
=7
*M3/4
8ddd
16ccc
16bb-
16ff
16gg
4.bb-
=8
*M2/4
8ddd
16ccc
16bb-
16ccc
16bb-
8gg
=9
2ff
=10
4dd
4r}
==
!!!AGN: Shange, Huar, Garjieling
!! Han Hui 
!!!ONB: ESAC (Essen Associative Code) Database: SENGANSU
!!!AMT: irregular
!!!AIN: vox
!!!EED: Helmut Schaffrath
!!!EEV: 1.0
*-
